resources/svg/line-line.svg

<svg fill="currentColor" viewBox="0 0 24 24" xmlns="http://www.w3.org/2000/svg"><path d="M22.001 10.6906C22.001 12.4773 21.3143 14.0898 19.8776 15.6639C17.7776 18.0781 13.0901 21.0273 12.0143 21.4764C10.9401 21.9273 11.1026 21.1898 11.1401 20.9389L11.2768 20.0889C11.311 19.8273 11.3451 19.4398 11.2451 19.1889C11.1326 18.9123 10.6893 18.7656 10.3635 18.6973C5.55931 18.0589 2.00098 14.6998 2.00098 10.6906C2.00098 6.21477 6.48848 2.57227 12.001 2.57227C17.5135 2.57227 22.001 6.21477 22.001 10.6906ZM18.4004 14.3157C19.514 13.0955 20.001 11.9542 20.001 10.6906C20.001 7.42219 16.4903 4.57227 12.001 4.57227C7.51164 4.57227 4.00098 7.42219 4.00098 10.6906C4.00098 13.5955 6.7293 16.1968 10.6269 16.7147L10.774 16.7398C11.8525 16.966 12.6581 17.3541 13.1029 18.4483C13.1158 18.4804 13.1279 18.5124 13.1395 18.5441C14.9449 17.3678 17.313 15.5652 18.4004 14.3157ZM18.1385 10.3148C18.4293 10.3148 18.6635 10.5523 18.6635 10.8406C18.6635 11.1281 18.4293 11.3656 18.1385 11.3656H16.676V12.3031H18.1385C18.4293 12.3031 18.6635 12.5389 18.6635 12.8281C18.6635 13.1148 18.4293 13.3523 18.1385 13.3523H16.1501C15.8626 13.3523 15.6276 13.1148 15.6276 12.8281V8.85227C15.6276 8.56477 15.8626 8.32727 16.1526 8.32727H18.141C18.4293 8.32727 18.6635 8.56477 18.6635 8.85227C18.6635 9.1431 18.4293 9.37727 18.1385 9.37727H16.676V10.3148H18.1385ZM14.926 12.8281C14.926 13.0531 14.781 13.2531 14.566 13.3248C14.5126 13.3423 14.4551 13.3506 14.4001 13.3506C14.2243 13.3506 14.0743 13.2756 13.9751 13.1423L11.9393 10.3781V12.8281C11.9393 13.1148 11.7068 13.3523 11.4135 13.3523C11.1251 13.3523 10.8918 13.1148 10.8918 12.8281V8.85227C10.8918 8.62727 11.036 8.42727 11.2501 8.35643C11.3001 8.33727 11.3635 8.32893 11.4118 8.32893C11.5743 8.32893 11.7243 8.4156 11.8243 8.5406L13.876 11.3156V8.85227C13.876 8.56477 14.111 8.32727 14.401 8.32727C14.6885 8.32727 14.926 8.56477 14.926 8.85227V12.8281ZM10.1418 12.8281C10.1418 13.1148 9.90681 13.3523 9.61598 13.3523C9.32848 13.3523 9.09348 13.1148 9.09348 12.8281V8.85227C9.09348 8.56477 9.32848 8.32727 9.61848 8.32727C9.90681 8.32727 10.1418 8.56477 10.1418 8.85227V12.8281ZM8.08681 13.3523H6.09848C5.81098 13.3523 5.57348 13.1148 5.57348 12.8281V8.85227C5.57348 8.56477 5.81098 8.32727 6.09848 8.32727C6.38848 8.32727 6.62348 8.56477 6.62348 8.85227V12.3031H8.08681C8.37681 12.3031 8.61098 12.5389 8.61098 12.8281C8.61098 13.1148 8.37598 13.3523 8.08681 13.3523Z"/></svg>

<svg xmlns="http://www.w3.org/2000/svg" viewBox="0 0 24 24" fill="currentColor">
    <g>
        <path fill="none" d="M0 0h24v24H0z"/>
        <path fill-rule="nonzero" d="M22 10.69c0 1.787-.687 3.4-2.123 4.974-2.1 2.414-6.788 5.363-7.864 5.812-1.074.451-.911-.287-.874-.537l.137-.85c.034-.262.068-.65-.032-.9-.112-.277-.556-.424-.881-.492C5.558 18.059 2 14.7 2 10.69c0-4.475 4.487-8.118 10-8.118 5.512 0 10 3.643 10 8.118zm-3.6 3.625c1.113-1.22 1.6-2.361 1.6-3.625 0-3.268-3.51-6.118-8-6.118s-8 2.85-8 6.118c0 2.905 2.728 5.507 6.626 6.024l.147.026c1.078.226 1.884.614 2.329 1.708l.036.096c1.806-1.176 4.174-2.98 5.261-4.229zm-.262-4a.526.526 0 0 1 0 1.05h-1.463v.938h1.462a.525.525 0 1 1 0 1.049H16.15a.526.526 0 0 1-.522-.524V8.852c0-.287.235-.525.525-.525h1.988a.525.525 0 0 1-.003 1.05h-1.462v.938h1.462zm-3.213 2.513a.524.524 0 0 1-.526.522.515.515 0 0 1-.425-.208l-2.036-2.764v2.45a.525.525 0 0 1-1.047 0V8.852a.522.522 0 0 1 .52-.523c.162 0 .312.086.412.211l2.052 2.775V8.852c0-.287.235-.525.525-.525.287 0 .525.238.525.525v3.976zm-4.784 0a.527.527 0 0 1-.526.524.526.526 0 0 1-.523-.524V8.852c0-.287.236-.525.525-.525.289 0 .524.238.524.525v3.976zm-2.055.524H6.097a.528.528 0 0 1-.525-.524V8.852a.527.527 0 0 1 1.05 0v3.45h1.464a.525.525 0 0 1 0 1.05z"/>
    </g>
</svg>
